X:1
T:Tra densi bronchi
T:Giovanni Matteo Asola
T:Source : Madrigali a due voci---Venetia---G.Vincenti---1587. Editor : André Vierendeels (14/11/17). Notes : Original clef : C3 ( Fuga di doi tempi, in unisono) Editorial accidentals above the staff (Seconda stanza ?)
T:Tra densi bronchi
T:©
T:©
T:©
T:©
T:©
C:Giovanni Matteo Asola
Z:©
%%score [ 1 2 ]
L:1/8
Q:1/4=120
M:4/4
K:F
V:1 treble-8 nm="Tenor 1" snm="T 1"
V:2 treble-8 nm="Tenor 2" snm="T 2"
V:1
 d4 d2 d2 | c2 A2 B2 G2 | B2 c2 d3 e | fg a3 g g2- | g2 fe f4 | g2 a2 f2 _e2 | %6
w: Tra den- si|bron- chi'e- leg- gia-|dret- ti ra- *|||m'e- leg- gia- dret-|
"^-natural" d2 e2 fedc | B2 A2 B2 c2 | d2 B2 A4 | G2 d2 d2 c2 | B2 G2 A2 B2 | de f4 e2 | fd g4 f2 | %13
w: ti ra- * * * *|* m'e- leg- gia-|dret- ti ra-|mi, e tra le|ver- di ma- ghi'e|fre- * * sche|fron- * * *|
 g2 f2 f2 e2 | d4 c2 d2 | B3 c d2 c2 | B4 A4 | z2 d4 c2- | c2 B2 A2 G2 | de f4 e2 | f2 g2 a4 | %21
w: di, e fre- sche|fron- di, e|fre- * * sche|fron- di,|sen- to|_ che già m'ap-|par- * * u'al|pri- * mo|
 d2 d2 f2 e2 | d4 c2 B2- | B2 A2 c4 | d2 B2 A2 E2 | G4 A4 | z2 d2 e2 g2 | f4 e4 | f2 g2 a2 a2 | %29
w: tem- po che già|m'ap- par- u'al|_ pri- mo|tem- po'al pri- mo|tem- po,|che non ac-|ce- so'et|in- fiam- ma- to|
 g3 f ed e2 | d4 z2 G2 | A2 B2 c2 c2 | d2 e2 c2 d2 | G4 A4 | z2 a2 g2 d2 | f2 f2 efge | f2 g4 f2 | %37
w: lu- * * * *|me, che|con ac- ce- so'et|in- fiam- ma- to|lu- me,|et in- fiam-|ma- to lu- * * *||
 g4 z2 e2 | f2 d2 e2 f2 | d4 z2 G2 | A2 B2 c2 d2 | G2 c2 c2 c2 | B2 B2 A4 | z2 a2 f2 d2 | %44
w: me, ar-|den- d'in ca- ri-|tà, ar-|den- d'in ca- ri-|tà, ar- den- d'in|ca- ri- tà|da que- sti|
 f4 e2 f2 | g2 ed e2 e2 | f2 d4 c2 | d4 z2 G2 | A2 B2 c2 BA | G4 z2 g2 | a2 f2 e4 | d2 G2 A2 B2 | %52
w: pog- gi, da|que- * * * sti|pog- * *|gi, da|que- sti pog- * *|gi, da|que- sti pog|gi, sua gra- tia|
 c2 d2 e2 f2 | g4 f2 e2- |"^#" ed d4 c2 | d4 z2 d2 | e2 f2 g2 a2 | g2 e2 a2 g2- | g2 f2 e4 | %59
w: non per me mi|chia- m'al _|_ _ cie- *|lo, sua|gra- tia non per|me mi chia- m'al|_ _ cie-|
 d2 G2 A2 B2 | c2 d2 e2 f2 | e2 g2 f2 ed | e2 d4 c2 | d4 z2 d2 | e2 f2 g2 a2 | g2 e2 a2 g2- | %66
w: lo, sua gra- tia|non per me mi|chia- m'al _ _ _|_ cie- *|lo, sua|gra- tia non per|me mi chia- m'al|
 g2 f2 e4 | !fermata!d8 |] %68
w: _ _ cie-|lo.|
V:2
 z8 | z8 | z8 | z8 | d4 d2 d2 | c2 A2 B2 G2 | B2 c2 d3 e | fg a3 g g2- | g2 fe f4 | g2 a2 f2 _e2 | %10
w: ||||Tra den- si|bron- chi'e- leg- gia-|dret- ti ra- *|||m'e- leg- gia- dret-|
"^-natural" d2 e2 fedc | B2 A2 B2 c2 | d2 B2 A4 | G2 d2 d2 c2 | B2 G2 A2 B2 | de f4 e2 | fd g4 f2 | %17
w: ti ra- * * * *|* m'e- leg- gia-|dret- ti ra-|mi, e tra le|ver- di ma- ghi'e|fre- * * sche|fron- * * *|
 g2 f2 f2 e2 | d4 c2 d2 | B3 c d2 c2 | B4 A4 | z2 d4 c2- | c2 B2 A2 G2 | de f4 e2 | f2 g2 a4 | %25
w: di, e fre- sche|fron- di, e|fre- * * sche|fron- di,|sen- to|_ che già m'ap-|par- * * u'al|pri- * mo|
 d2 d2 f2 e2 | d4 c2 B2- | B2 A2 c4 | d2 B2 A2 F2 | G4 A4 | z2 d2 e2 g2 | f4 e4 | f2 g2 a2 a2 | %33
w: tem- po che già|m'ap- pa- ru'al|_ pri- mo|tem- po'al pri- mo|tem- po,|che non ac-|ce- so'et|in fiam- ma- to|
 g3 f ed e2 | d4 z2 G2 | A2 B2 c2 c2 | d2 e2 c2 d2 | G4 A4 | z2 a2 g2 d2 | f2 f2 efge | f2 g4 f2 | %41
w: lu- * * * *|me, che|con ac- ce- so'et|in fiam- ma- to|lu- me,|et in fiam-|ma- to lu- * * *||
 g4 z2 e2 | f2 d2 e2 f2 | d4 z2 G2 | A2 B2 c2 d2 | G2 c2 c2 c2 | B2 B2 A4 | z2 a2 f2 d2 | %48
w: me, ar-|den- d'in ca- ri-|tà, ar-|den- d'in ca- ri-|tà, ar- den- d'in|ca- ri- tà|da que- sti|
 f4 e2 f2 | g2 ed e2 e2 |"^#" f2 d4 c2 | d4 z2 G2 | A2 B2 c2 BA | G4 z2 g2 | a2 f2 e4 | %55
w: pog- gi, da|que- * * * sti|pog- * *|gi, da|que- sti pog- * *|gi, da|que- sti pog-|
 d2 G2 A2 B2 | c2 d2 e2 f2 | g4 f2 e2- |"^#""^#" ed d4 c2 | d4 z2 d2 | e2 f2 g2 a2 | g2 e2 a2 g2- | %62
w: gi, sua gra- tia|non per me mi|chia- m'al _|_ _ cie- *|lo, sua|gra- tia non per|me mi chia- m'al|
 g2 f2 e4 | d2 G2 A2 B2 | c2 d2 e2 f2 | e2 g2 f2 ed |"^#" e2 d4 c2 | !fermata!d8 |] %68
w: _ _ cie-|lo, sua gra- tia|non per me mi|chia- m'al _ _ _|_ cie- *|lo.|

